Newaita-dark/mimetypes/22/payment-card-amex.svg

<svg height="22pt" viewBox="0 0 22 22" width="22pt" xmlns="http://www.w3.org/2000/svg" xmlns:xlink="http://www.w3.org/1999/xlink"><linearGradient id="a" gradientUnits="userSpaceOnUse" x1="11.3699116" x2="11.3699116" y1="17.90894815" y2="18.81854134324"><stop offset="0" stop-opacity=".27451"/><stop offset="1" stop-opacity="0"/></linearGradient><linearGradient id="b"><stop offset="0" stop-opacity=".313725"/><stop offset=".222222" stop-opacity=".27451"/><stop offset="1" stop-opacity="0"/></linearGradient><radialGradient id="c" cx="450.90894" cy="189.57936" gradientTransform="matrix(.00000012 -.0537161 -.0966889 -.00000007 36.749414 42.357404)" gradientUnits="userSpaceOnUse" r="21.166656" xlink:href="#b"/><radialGradient id="d" cx="450.90894" cy="189.57936" gradientTransform="matrix(-.00000012 .0537161 .0966889 .00000007 -14.919205 -6.53953)" gradientUnits="userSpaceOnUse" r="21.166656" xlink:href="#b"/><radialGradient id="e" cx="450.90894" cy="189.57936" gradientTransform="matrix(-.00000012 -.0537161 .0966889 -.00000007 -14.919205 42.357404)" gradientUnits="userSpaceOnUse" r="21.166656" xlink:href="#b"/><radialGradient id="f" cx="450.90894" cy="189.57936" gradientTransform="matrix(.00000012 .0537161 -.0966889 .00000007 36.749413 -6.53953)" gradientUnits="userSpaceOnUse" r="21.166656" xlink:href="#b"/><linearGradient id="g" gradientUnits="userSpaceOnUse" x1="10.9151166" x2="10.9151166" y1="17.908945575" y2="4.265049825"><stop offset="0" stop-color="#42a5f5"/><stop offset="1" stop-color="#64b5f6"/></linearGradient><linearGradient id="h" gradientUnits="userSpaceOnUse" x1="10.9151166" x2="10.9151166" y1="17.908945575" y2="4.265049825"><stop offset="0" stop-color="#424242"/><stop offset="1" stop-color="#616161"/></linearGradient><path d="m3.183594 17.910156h15.464844v.910156h-15.464844zm0 0" fill="url(#a)"/><path d="m18.648438 17.910156h1.816406v-.910156h-1.816406zm0 0" fill="url(#c)"/><path d="m3.183594 17.910156h-1.820313v.910156h1.820313zm0 0" fill="url(#d)"/><path d="m3.183594 17.910156h-1.820313v-.910156h1.820313zm0 0" fill="url(#e)"/><path d="m18.648438 17.910156h1.816406v.910156h-1.816406zm0 0" fill="url(#f)"/><path d="m2.730469 4.265625h16.371093c.503907 0 .910157.40625.910157.910156v11.824219c0 .5-.40625.910156-.910157.910156h-16.371093c-.503907 0-.910157-.410156-.910157-.910156v-11.824219c0-.503906.40625-.910156.910157-.910156zm0 0" fill="url(#g)"/><path d="m1.820312 6.085938h18.191407v2.726562h-18.191407zm0 0" fill="url(#h)"/><path d="m2.730469 4.265625c-.503907 0-.910157.40625-.910157.910156v.226563c0-.503906.40625-.910156.910157-.910156h16.371093c.503907 0 .910157.40625.910157.910156v-.226563c0-.503906-.40625-.910156-.910157-.910156zm0 0" fill="#fff" fill-opacity=".588235"/><path d="m1.820312 16.78125v.21875c0 .503906.40625.910156.910157.910156h16.371093c.503907 0 .910157-.40625.910157-.910156v-.21875c0 .503906-.40625.90625-.910157.90625h-16.371093c-.503907 0-.910157-.402344-.910157-.90625zm0 0" fill-opacity=".235294"/><path d="m63.539387-115.736752h380.96362c11.726153 0 21.179795 9.453643 21.179795 21.179796v275.155542c0 11.635252-9.453642 21.179795-21.179795 21.179795h-380.96362c-11.726153 0-21.179796-9.544543-21.179796-21.179795v-275.155542c0-11.726153 9.453643-21.179796 21.179796-21.179796zm0 0" fill="none" stroke="#212121" stroke-linecap="round" stroke-linejoin="round" stroke-width="3" transform="matrix(.0429729 0 0 .0429729 0 9.239163)"/><path d="m5.457031 11.085938h6.824219c.25 0 .453125.203124.453125.457031v1.363281c0 .25-.203125.453125-.453125.453125h-6.824219c-.25 0-.453125-.203125-.453125-.453125v-1.363281c0-.253907.203125-.457031.453125-.457031zm0 0" fill="#eee"/><path d="m13.644531 11.085938h2.273438c.25 0 .453125.203124.453125.457031v1.363281c0 .25-.203125.453125-.453125.453125h-2.273438c-.25 0-.457031-.203125-.457031-.453125v-1.363281c0-.253907.207031-.457031.457031-.457031zm0 0" fill="#eee"/><g fill="none" stroke="#212121" stroke-linecap="round" stroke-linejoin="round" stroke-width="3" transform="matrix(.0429729 0 0 .0429729 0 9.239163)"><path d="m42.359591-73.377161h423.323211v63.448487h-423.323211zm0 0"/><path d="m126.987873 42.975365h158.803017c5.817626 0 10.544448 4.726821 10.544448 10.635348v31.724243c0 5.817626-4.726822 10.544447-10.544448 10.544447h-158.803017c-5.817626 0-10.544447-4.726821-10.544447-10.544447v-31.724243c0-5.908527 4.726821-10.635348 10.544447-10.635348zm0 0"/><path d="m317.515133 42.975365h52.904039c5.817626 0 10.544448 4.726821 10.544448 10.635348v31.724243c0 5.817626-4.726822 10.544447-10.544448 10.544447h-52.904039c-5.817626 0-10.635348-4.726821-10.635348-10.544447v-31.724243c0-5.908527 4.817722-10.635348 10.635348-10.635348zm0 0"/></g></svg>

<?xml version="1.0" encoding="UTF-8"?>
<svg xmlns="http://www.w3.org/2000/svg" xmlns:xlink="http://www.w3.org/1999/xlink" width="22pt" height="22pt" viewBox="0 0 22 22" version="1.1">
<defs>
<linearGradient id="linear0" gradientUnits="userSpaceOnUse" x1="254" y1="233.5" x2="254" y2="254.66667" gradientTransform="matrix(0.0429729,0,0,0.0429729,0.454795,7.874776)">
<stop offset="0" style="stop-color:rgb(0%,0%,0%);stop-opacity:0.27451;"/>
<stop offset="1" style="stop-color:rgb(0%,0%,0%);stop-opacity:0;"/>
</linearGradient>
<radialGradient id="radial0" gradientUnits="userSpaceOnUse" cx="450.90894" cy="189.57936" fx="450.90894" fy="189.57936" r="21.166656" gradientTransform="matrix(0.000000119742,-0.0537161,-0.0966889,-0.0000000698078,36.749414,42.357404)">
<stop offset="0" style="stop-color:rgb(0%,0%,0%);stop-opacity:0.313725;"/>
<stop offset="0.222222" style="stop-color:rgb(0%,0%,0%);stop-opacity:0.27451;"/>
<stop offset="1" style="stop-color:rgb(0%,0%,0%);stop-opacity:0;"/>
</radialGradient>
<radialGradient id="radial1" gradientUnits="userSpaceOnUse" cx="450.90894" cy="189.57936" fx="450.90894" fy="189.57936" r="21.166656" gradientTransform="matrix(-0.000000119742,0.0537161,0.0966889,0.0000000698078,-14.919205,-6.53953)">
<stop offset="0" style="stop-color:rgb(0%,0%,0%);stop-opacity:0.313725;"/>
<stop offset="0.222222" style="stop-color:rgb(0%,0%,0%);stop-opacity:0.27451;"/>
<stop offset="1" style="stop-color:rgb(0%,0%,0%);stop-opacity:0;"/>
</radialGradient>
<radialGradient id="radial2" gradientUnits="userSpaceOnUse" cx="450.90894" cy="189.57936" fx="450.90894" fy="189.57936" r="21.166656" gradientTransform="matrix(-0.000000119742,-0.0537161,0.0966889,-0.0000000698078,-14.919205,42.357404)">
<stop offset="0" style="stop-color:rgb(0%,0%,0%);stop-opacity:0.313725;"/>
<stop offset="0.222222" style="stop-color:rgb(0%,0%,0%);stop-opacity:0.27451;"/>
<stop offset="1" style="stop-color:rgb(0%,0%,0%);stop-opacity:0;"/>
</radialGradient>
<radialGradient id="radial3" gradientUnits="userSpaceOnUse" cx="450.90894" cy="189.57936" fx="450.90894" fy="189.57936" r="21.166656" gradientTransform="matrix(0.000000119742,0.0537161,-0.0966889,0.0000000698078,36.749413,-6.53953)">
<stop offset="0" style="stop-color:rgb(0%,0%,0%);stop-opacity:0.313725;"/>
<stop offset="0.222222" style="stop-color:rgb(0%,0%,0%);stop-opacity:0.27451;"/>
<stop offset="1" style="stop-color:rgb(0%,0%,0%);stop-opacity:0;"/>
</radialGradient>
<linearGradient id="linear1" gradientUnits="userSpaceOnUse" x1="254" y1="201.75" x2="254" y2="-115.75" gradientTransform="matrix(0.0429729,0,0,0.0429729,0,9.239163)">
<stop offset="0" style="stop-color:rgb(25.882353%,64.705882%,96.078431%);stop-opacity:1;"/>
<stop offset="1" style="stop-color:rgb(39.215686%,70.980392%,96.470588%);stop-opacity:1;"/>
</linearGradient>
<linearGradient id="linear2" gradientUnits="userSpaceOnUse" x1="254" y1="201.75" x2="254" y2="-115.75" gradientTransform="matrix(0.0429729,0,0,0.0429729,0,9.239163)">
<stop offset="0" style="stop-color:rgb(25.882353%,25.882353%,25.882353%);stop-opacity:1;"/>
<stop offset="1" style="stop-color:rgb(38.039216%,38.039216%,38.039216%);stop-opacity:1;"/>
</linearGradient>
</defs>
<g id="surface1">
<path style=" stroke:none;fill-rule:nonzero;fill:url(#linear0);" d="M 3.183594 17.910156 L 18.648438 17.910156 L 18.648438 18.820312 L 3.183594 18.820312 Z M 3.183594 17.910156 "/>
<path style=" stroke:none;fill-rule:nonzero;fill:url(#radial0);" d="M 18.648438 17.910156 L 20.464844 17.910156 L 20.464844 17 L 18.648438 17 Z M 18.648438 17.910156 "/>
<path style=" stroke:none;fill-rule:nonzero;fill:url(#radial1);" d="M 3.183594 17.910156 L 1.363281 17.910156 L 1.363281 18.820312 L 3.183594 18.820312 Z M 3.183594 17.910156 "/>
<path style=" stroke:none;fill-rule:nonzero;fill:url(#radial2);" d="M 3.183594 17.910156 L 1.363281 17.910156 L 1.363281 17 L 3.183594 17 Z M 3.183594 17.910156 "/>
<path style=" stroke:none;fill-rule:nonzero;fill:url(#radial3);" d="M 18.648438 17.910156 L 20.464844 17.910156 L 20.464844 18.820312 L 18.648438 18.820312 Z M 18.648438 17.910156 "/>
<path style=" stroke:none;fill-rule:nonzero;fill:url(#linear1);" d="M 2.730469 4.265625 L 19.101562 4.265625 C 19.605469 4.265625 20.011719 4.671875 20.011719 5.175781 L 20.011719 17 C 20.011719 17.5 19.605469 17.910156 19.101562 17.910156 L 2.730469 17.910156 C 2.226562 17.910156 1.820312 17.5 1.820312 17 L 1.820312 5.175781 C 1.820312 4.671875 2.226562 4.265625 2.730469 4.265625 Z M 2.730469 4.265625 "/>
<path style=" stroke:none;fill-rule:nonzero;fill:url(#linear2);" d="M 1.820312 6.085938 L 20.011719 6.085938 L 20.011719 8.8125 L 1.820312 8.8125 Z M 1.820312 6.085938 "/>
<path style=" stroke:none;fill-rule:nonzero;fill:rgb(100%,100%,100%);fill-opacity:0.588235;" d="M 2.730469 4.265625 C 2.226562 4.265625 1.820312 4.671875 1.820312 5.175781 L 1.820312 5.402344 C 1.820312 4.898438 2.226562 4.492188 2.730469 4.492188 L 19.101562 4.492188 C 19.605469 4.492188 20.011719 4.898438 20.011719 5.402344 L 20.011719 5.175781 C 20.011719 4.671875 19.605469 4.265625 19.101562 4.265625 Z M 2.730469 4.265625 "/>
<path style=" stroke:none;fill-rule:nonzero;fill:rgb(0%,0%,0%);fill-opacity:0.235294;" d="M 1.820312 16.78125 L 1.820312 17 C 1.820312 17.503906 2.226562 17.910156 2.730469 17.910156 L 19.101562 17.910156 C 19.605469 17.910156 20.011719 17.503906 20.011719 17 L 20.011719 16.78125 C 20.011719 17.285156 19.605469 17.6875 19.101562 17.6875 L 2.730469 17.6875 C 2.226562 17.6875 1.820312 17.285156 1.820312 16.78125 Z M 1.820312 16.78125 "/>
<path style="fill:none;stroke-width:3;stroke-linecap:round;stroke-linejoin:round;stroke:rgb(12.941176%,12.941176%,12.941176%);stroke-opacity:1;stroke-miterlimit:4;" d="M 63.539387 -115.736752 L 444.503007 -115.736752 C 456.22916 -115.736752 465.682802 -106.283109 465.682802 -94.556956 L 465.682802 180.598586 C 465.682802 192.233838 456.22916 201.778381 444.503007 201.778381 L 63.539387 201.778381 C 51.813234 201.778381 42.359591 192.233838 42.359591 180.598586 L 42.359591 -94.556956 C 42.359591 -106.283109 51.813234 -115.736752 63.539387 -115.736752 Z M 63.539387 -115.736752 " transform="matrix(0.0429729,0,0,0.0429729,0,9.239163)"/>
<path style=" stroke:none;fill-rule:nonzero;fill:rgb(93.333333%,93.333333%,93.333333%);fill-opacity:1;" d="M 5.457031 11.085938 L 12.28125 11.085938 C 12.53125 11.085938 12.734375 11.289062 12.734375 11.542969 L 12.734375 12.90625 C 12.734375 13.15625 12.53125 13.359375 12.28125 13.359375 L 5.457031 13.359375 C 5.207031 13.359375 5.003906 13.15625 5.003906 12.90625 L 5.003906 11.542969 C 5.003906 11.289062 5.207031 11.085938 5.457031 11.085938 Z M 5.457031 11.085938 "/>
<path style=" stroke:none;fill-rule:nonzero;fill:rgb(93.333333%,93.333333%,93.333333%);fill-opacity:1;" d="M 13.644531 11.085938 L 15.917969 11.085938 C 16.167969 11.085938 16.371094 11.289062 16.371094 11.542969 L 16.371094 12.90625 C 16.371094 13.15625 16.167969 13.359375 15.917969 13.359375 L 13.644531 13.359375 C 13.394531 13.359375 13.1875 13.15625 13.1875 12.90625 L 13.1875 11.542969 C 13.1875 11.289062 13.394531 11.085938 13.644531 11.085938 Z M 13.644531 11.085938 "/>
<path style="fill:none;stroke-width:3;stroke-linecap:round;stroke-linejoin:round;stroke:rgb(12.941176%,12.941176%,12.941176%);stroke-opacity:1;stroke-miterlimit:4;" d="M 42.359591 -73.377161 L 465.682802 -73.377161 L 465.682802 -9.928674 L 42.359591 -9.928674 Z M 42.359591 -73.377161 " transform="matrix(0.0429729,0,0,0.0429729,0,9.239163)"/>
<path style="fill:none;stroke-width:3;stroke-linecap:round;stroke-linejoin:round;stroke:rgb(12.941176%,12.941176%,12.941176%);stroke-opacity:1;stroke-miterlimit:4;" d="M 126.987873 42.975365 L 285.79089 42.975365 C 291.608516 42.975365 296.335338 47.702186 296.335338 53.610713 L 296.335338 85.334956 C 296.335338 91.152582 291.608516 95.879403 285.79089 95.879403 L 126.987873 95.879403 C 121.170247 95.879403 116.443426 91.152582 116.443426 85.334956 L 116.443426 53.610713 C 116.443426 47.702186 121.170247 42.975365 126.987873 42.975365 Z M 126.987873 42.975365 " transform="matrix(0.0429729,0,0,0.0429729,0,9.239163)"/>
<path style="fill:none;stroke-width:3;stroke-linecap:round;stroke-linejoin:round;stroke:rgb(12.941176%,12.941176%,12.941176%);stroke-opacity:1;stroke-miterlimit:4;" d="M 317.515133 42.975365 L 370.419172 42.975365 C 376.236798 42.975365 380.96362 47.702186 380.96362 53.610713 L 380.96362 85.334956 C 380.96362 91.152582 376.236798 95.879403 370.419172 95.879403 L 317.515133 95.879403 C 311.697507 95.879403 306.879785 91.152582 306.879785 85.334956 L 306.879785 53.610713 C 306.879785 47.702186 311.697507 42.975365 317.515133 42.975365 Z M 317.515133 42.975365 " transform="matrix(0.0429729,0,0,0.0429729,0,9.239163)"/>
</g>
</svg>
